X:91
%%etbk:tnset id:32,pos:1,rep:3x,ant:
%%etbk:wsite http://www.thesession.org/tunes/display/452
%%etbk:skill ?
%%etbk:pldat 2013-05-15T15:40
T: Fred Finn's
Z: Piano Box Version by Martin Fleischmann
H: Created 2013-02-19 /  Last Modified 2013-02-19
M: 4/4
L: 1/8
R: reel
K: Dmaj
|: "D"!1!AAA!2!F !1!A!2!B!4!d!2!e | !3!f!1!d!5!e!3!c !4!d2cd | "em"!2!B!1!E!2!E!1!E !2!GGG!4!B | "D"!3!A!2!FFF !1!D!2!FFF | 
"D"!3!A3!2!F !1!A!2!B!4!d!2!e | !3!f!1!d!5!e!3!c !4!d2cd | "G"!2!BB!1!GB "A"!1!A!2!B!4!d!2!e | !3!ffeg "D"!3!f!1!dd2 :|
|: "D"!2!fd!4!ad !5!bd!4!a!2!f | !1!d!2!f!4!af !2!f!1!e!2!d!1!e | "bm"!2!f!5!bba !5!b2ba | !2!f!5!baf "A"!2!f!1!e!2!e!1!e |
"D"!2!fd!4!ad !5!bd!4!a!2!f | !1!d!3!f!5!a!3!f !3!fe!1!d!2!B | !1!A3!2!F !1!A!2!B!4!d!2!e | "A"!3!ffeg "D"!3!f!1!dd2 :|
